!!!COM: Beethoven
!!!OTL: 32 Variationen fur das pianoforte
!!!Variation: Variation 12 a
**function	**harm	**kern	**kern
*	*	*clefF4	*clefF4
*	*	*k[]	*k[]
*M3/4	*M3/4	*M3/4	*M3/4
*C:	*C:	*C:	*C:
=97	=97	=97	=97
*	*	*^	*^
2.T	I	r	2.CC	r	r
.	.	(4GG	.	(4..c	2E 2G
.	.	4C)	.	.	.
.	.	.	.	16e)	.
=98	=98	=98	=98	=98	=98
2.T	Vb	r	2.BBB	4d	2.D 2.G
.	.	(4GG	.	(4..G	.
.	.	4BB)	.	.	.
.	.	.	.	16d)	.
=99	=99	=99	=99	=99	=99
2.T	V7b/ii	r	2.CC#	4e	4G 4B-
.	.	(4AA	.	(4..e	2G 2A
.	.	4C#)	.	.	.
.	.	.	.	16g)	.
=100	=100	=100	=100	=100	=100
2.T	ii	r	2.DD	4e	2.F 2.A
.	.	(4AA	.	4..f	.
.	.	4D)	.	.	.
.	.	.	.	16f	.
=101	=101	=101	=101	=101	=101
2.T	ioD7b	r	2.DD#	4f#	2.A 2.c
.	.	(4C	.	4..f#	.
.	.	4D#)	.	.	.
.	.	.	.	16f#	.
*	*	*v	*v	*	*
=102	=102	=102	=102	=102
4T	Ib	(4EE	4g	4G 4c
*	*	*	*clefG2	*
4P	ii7b	4FFF 4FF	[2a	[2A [2c [2d
4P	V7b/V	[4FFF#) [4FF#	.	.
=103	=103	=103	=103	=103
4P	V7b/V	4FFF#] 4FF#]	8.aL]	4A] 4c] 4d]
.	.	.	16aJk	.
2D	V7	[2GGG [2GG	(4f	2B 2d
.	.	.	4g	.
*	*	*	*v	*v
=104	=104	=104	=104
2T	I	4GGG] 4GG]	8c)
.	.	.	r
.	.	(4EE	r
16T	I	16CC)	r
!	!	!bass note rings	!
*-	*-	*-	*-
